X:1
T:Rimsky-Korsakov Harmonic Exercises, Modulations
T:Rimsky-Korsakov Harmonic Exercises, Modulations (1)
T:"Practical Manual of Harmony" (1885)
%%score { ( 1 4 ) | ( 2 3 ) }
L:1/8
Q:1/2=120
M:4/1
K:C
V:1 treble nm="Piano" snm="Pno."
V:4 treble 
V:2 bass 
V:3 bass 
V:1
"""""_C:""_a:""_{""^C -- a""^Modulations without chromaticism""^Examples by Rimsky-Korsakov:" [EG]8"" [DF]8"" [B,E]8"" [CE]8 |] %1
[M:3/1]"""^C -- G""_C:""_G:""_{" c8 c8 B8 |][M:2/1]"""^C -- F""_C:""_F:""_{" c4 _B4 A8 |] %3
"""^C -- f""_C:""_f:""_{" c4 _B4 _A8 |][M:4/1]"""^C -- d""_C:""_d:""_{" c8 G8 A8 A8 |] %5
"""^C -- e""_C:""_e:""_{" c8 c8 B8 B8 |][M:6/1]"""^C -- F""_C:""_F:""_{" e8 f8 d8 c8 c8 c8 |] %7
"""^C -- f""_C:""_f:""_{" e8 f8 _d8 c8 c8 c8 |][M:5/1]"""^a -- C""_a:""_C:""_{" c8 d8 c8 B8 c8 |] %9
[M:4/1]"""^a -- C""_a:""_C:""_{" c8 c8 d8 e8 |]"""^a -- e""_a:""_e:""_{" c8 B8 B8 B8 |] %11
"""^a -- E""_a:""_E:""_{" c8 B8 B8 B8 |][M:3/1]"""^a -- F""_a:""_F:""_{" c8 c8 c8 |] %13
"""^a -- G""_a:""_G:""_{" c8 c8 B8 |] %14
[M:6/1]"""^a -- (F) -- d""_a:""_F:""_{""^Modulation via relative key" c8 c8"""_F:""_d:""_{" c8"" _B8"" A8"" A8 |] %15
[M:8/1]"""^C -- (d) -- F""_C:""_d:""_{" c8 G8 A8"""_d:""_F:""_{" A8"" _B8"" A8"" G8"" A8 |] %16
[M:4/1]"""^Modulation via the major subdominant triad of melodic minor""^a -- d""_a:" c8"""_a:""_d:""_{" d8 e8 f8 |] %17
"""^C -- d""_C:" e8"""_C:""_d:""_{" d8 e8 f8 |] %18
"""^C -- a""^Modulation via tonic triad""_C:""_a:" c8"""_C:""_{" c8 B8 A8 |] %19
"""^C -- G""_C:" c8"""_C:""_G:""_{" B8 A8 B8 |] %20
[M:5/1]"""^C -- F""_C:" c8"""_C:""_F:""_{" c8 d8 c8 c8 |] %21
"""^C -- f""_C:" c8"""_C:""_f:""_{" c8 _d8 c8 c8 |] %22
[M:4/1]"""^a -- C""_a:" A8"""_a:""_C:""_{" G8 G8 G8 |] %23
"""^a -- e""_a:" c8"""_a:""_e:""_{" B8 B8 B8 |]"""^a -- E""_a:" c8"""_a:""_E:""_{" B8 B8 B8 |] %25
"""^a -- F""_a:" c8"""_a:""_F:""_{" c8 c8 c8 |]"""^a -- G""_a:" c8"""_a:""_G:""_{" d8 d8 d8 |] %27
V:2
 C8 A,8 ^G,8 A,8 |][M:3/1] E8 D8 D8 |][M:2/1] [CE]8 [F,F]8 |] E8 F8 |][M:4/1] E8 D8 ^C8 D8 |] %5
 E8 E8 ^D8 E8 |][M:6/1] G8 F8 F8 F8 E8 F8 |] G8 F8 F8 F8 E8 F8 |][M:5/1] E8 D8 E8 D8 E8 |] %9
[M:4/1] E8 F8 F8 G8 |] E8 E8 ^D8 E8 |] E8 E8 ^D8 E8 |][M:3/1] E8 E8 F8 |] E8 D8 D8 |] %14
[M:6/1] E8 E8 F8 D8 ^C8 D8 |][M:8/1] E8 D8 ^C8 D8 D8 =C8 C8 C8 |] %16
[M:4/1] [A,E]8 [G,G]8 [E,G]8 [D,A]8 |] G8 G8 G8 A8 |] E8 E8 E8 C8 |] E8 D8 D8 D8 |] %20
[M:5/1] E8 F8 F8 E8 F8 |] E8 F8 F8 E8 F8 |][M:4/1] C8 C8 B,8 C8 |] E8 E8 ^D8 E8 |] E8 E8 ^D8 E8 |] %25
 E8 F8 E8 F8 |] E8 G8 ^F8 G8 |] %27
V:3
 C,8 D,8 E,8 A,,8 |][M:3/1] C,8 D,8 G,8 |][M:2/1] x16 |] C8 F,8 |][M:4/1] C8 _B,8 A,8 D8 |] %5
 C8 A,8 B,8 E,8 |][M:6/1] C8 D8 _B,8 C8 C8 F,8 |] C8 _D8 _B,8 C8 C8 F,8 |] %8
[M:5/1] A,8 F,8 G,8 G,8 C8 |][M:4/1] A,8 F,8 D,8 C,8 |] A,8 B,8 B,8 E,8 |] A,8 B,8 B,8 E,8 |] %12
[M:3/1] A,8 G,8 F,8 |] A,8 D,8 G,8 |][M:6/1] A,8 G,8 F,8 G,8 A,8 D,8 |] %15
[M:8/1] C8 _B,8 A,8 D8 _B,8 =C8 C,8 F,8 |][M:4/1] x32 |] C,8 G,8 E,8 D,8 |] C8 A,8 E,8 A,8 |] %19
 C8 G,8 D,8 G,8 |][M:5/1] C,8 F,8 _B,,8 C,8 F,8 |] C,8 F,8 _B,,8 C,8 F,8 |] %22
[M:4/1] A,,8 C,8 G,,8 C,8 |] A,,8 E,8 B,,8 E,8 |] A,,8 E,8 B,,8 E,8 |] A,,8 F,8 C,8 F,8 |] %26
 A,,8 G,,8 D,8 G,,8 |] %27
V:4
 x32 |][M:3/1]"" G8"" ^F8"" G8 |][M:2/1]"""" G8"" F8 |]"""" G8"" F8 |] %4
[M:4/1]"" G8"" G8"" E8"" F8 |]"" G8"" ^F8"" ^F8"" G8 |] %6
[M:6/1]"" c4"" _B4"" A8"" _B8"" A8"" G8"" A8 |]"" c4"" _B4"" _A8"" _B8"" _A8"" G8"" _A8 |] %8
[M:5/1]"" A8"" A8"" G8"" G8"" G8 |][M:4/1]"" A8"" A8"" B8"" c8 |]"" A8"" G8"" A8"" G8 |] %11
"" A8"" ^G8"" A8"" ^G8 |][M:3/1]"" A8"" _B8"" A8 |]"" A8"" ^F8"" G8 |] %14
[M:6/1]"" A8"" _B8"" A8 G8 E8 F8 |][M:8/1]"" G8"" G8"" E8"" F8 F8 F8 E8 F8 |] %16
[M:4/1] A8"" B8"" ^c8"" d8 |] c8"" B8"" ^c8"" d8 |] G8"" A8"" ^G8"" A8 |] G8"" G8"" ^F8"" G8 |] %20
[M:5/1] G8"" A8"" _B8"" G8"" A8 |] G8"" _A8"" _B8"" G8"" _A8 |][M:4/1] E8"" E8"" D8"" E8 |] %23
 A8"" G8"" ^F8"" G8 |] A8"" ^G8"" ^F8"" ^G8 |] A8"" A8"" G8"" A8 |] A8"" B8"" A8"" B8 |] %27

